public/dininginthedark3/img/icon/icon-calendar.svg

<?xml version="1.0" encoding="UTF-8"?><svg id="a" xmlns="http://www.w3.org/2000/svg" viewBox="0 0 14 14"><defs><style>.f,.g{fill:#8c5fb4;}.g{fill-rule:evenodd;}</style></defs><g id="b"><g id="c"><rect id="d" class="f" width="14" height="2"/><path id="e" class="g" d="M10,12h2v-2h-2v2Zm-2,0v-2h-2v2h2Zm-4,0v-2H2v2h2Zm-2,2H0V4H14V14H2Zm8-6h2v-2h-2v2Zm-2,0v-2h-2v2h2Zm-4,0v-2H2v2h2Z"/></g></g></svg>

<svg id="圖層_2" data-name="圖層 2" xmlns="http://www.w3.org/2000/svg" viewBox="0 0 14 14"><defs><style>.cls-1,.cls-2{fill:#efc27b;}.cls-2{fill-rule:evenodd;}</style></defs><title>icon</title><g id="第一階段"><g id="Group-5"><rect id="Rectangle-12" class="cls-1" width="14" height="2"/><path id="Combined-Shape" class="cls-2" d="M10,12h2V10H10ZM8,12V10H6v2ZM4,12V10H2v2ZM2,14H0V4H14V14H2Zm8-6h2V6H10ZM8,8V6H6V8ZM4,8V6H2V8Z"/></g></g></svg>
